src/webpage/icons/x.svg

<?xml version="1.0" encoding="UTF-8" standalone="no"?>
<svg
   viewBox="0 0 180 180"
   version="1.1"
   id="svg1"
   sodipodi:docname="x.svg"
   inkscape:version="1.3.2 (091e20e, 2023-11-25)"
   xmlns:inkscape="http://www.inkscape.org/namespaces/inkscape"
   xmlns:sodipodi="http://sodipodi.sourceforge.net/DTD/sodipodi-0.dtd"
   xmlns="http://www.w3.org/2000/svg"
   xmlns:svg="http://www.w3.org/2000/svg">
  <defs
     id="defs1">
    <filter
       id="mask-powermask-path-effect5_inverse"
       inkscape:label="filtermask-powermask-path-effect5"
       style="color-interpolation-filters:sRGB"
       height="100"
       width="100"
       x="-50"
       y="-50">
      <feColorMatrix
         id="mask-powermask-path-effect5_primitive1"
         values="1"
         type="saturate"
         result="fbSourceGraphic" />
      <feColorMatrix
         id="mask-powermask-path-effect5_primitive2"
         values="-1 0 0 0 1 0 -1 0 0 1 0 0 -1 0 1 0 0 0 1 0 "
         in="fbSourceGraphic" />
    </filter>
  </defs>
  <sodipodi:namedview
     id="namedview1"
     pagecolor="#ffffff"
     bordercolor="#000000"
     borderopacity="0.25"
     inkscape:showpageshadow="2"
     inkscape:pageopacity="0.0"
     inkscape:pagecheckerboard="0"
     inkscape:deskcolor="#d1d1d1"
     inkscape:zoom="1.4220472"
     inkscape:cx="71.024365"
     inkscape:cy="127.9845"
     inkscape:window-width="1440"
     inkscape:window-height="847"
     inkscape:window-x="0"
     inkscape:window-y="25"
     inkscape:window-maximized="0"
     inkscape:current-layer="svg1" />
  <path
     id="path1"
     style="display:inline;fill:#ff0000;fill-opacity:1;stroke:#ff0000;stroke-width:0;stroke-linecap:round;stroke-dasharray:none"
     d="M 90 0 A 90 90 0 0 0 0 90 A 90 90 0 0 0 90 180 A 90 90 0 0 0 180 90 A 90 90 0 0 0 90 0 z M 61.714844 49.714844 A 12 12 0 0 1 70.201172 53.230469 L 90 73.029297 L 109.79883 53.230469 A 12 12 0 0 1 118.28516 49.714844 A 12 12 0 0 1 126.76953 53.230469 A 12 12 0 0 1 126.76953 70.201172 L 106.9707 90 L 126.76953 109.79883 A 12 12 0 0 1 126.76953 126.76953 A 12 12 0 0 1 109.79883 126.76953 L 90 106.9707 L 70.201172 126.76953 A 12 12 0 0 1 53.230469 126.76953 A 12 12 0 0 1 53.230469 109.79883 L 73.029297 90 L 53.230469 70.201172 A 12 12 0 0 1 53.230469 53.230469 A 12 12 0 0 1 61.714844 49.714844 z " />
</svg>

<svg xmlns="http://www.w3.org/2000/svg" viewBox="0 0 180 180"><path fill="red" d="M90 0A90 90 0 0 0 0 90a90 90 0 0 0 90 90 90 90 0 0 0 90-90A90 90 0 0 0 90 0zM61.7 49.7a12 12 0 0 1 8.5 3.5L90 73l19.8-19.8a12 12 0 0 1 8.5-3.5 12 12 0 0 1 8.5 3.5 12 12 0 0 1 0 17L107 90l19.8 19.8a12 12 0 0 1 0 17 12 12 0 0 1-17 0L90 107l-19.8 19.8a12 12 0 0 1-17 0 12 12 0 0 1 0-17L73 90 53.2 70.2a12 12 0 0 1 0-17 12 12 0 0 1 8.5-3.5z"/></svg>
